X:1
T:Title
%%score 1 { 2 | 3 }
L:1/8
Q:1/4=100
M:4/4
K:G
V:1 treble nm="Grand Piano, Soprano"
V:2 treble nm="Choir Pad, Lo! He Cometh (Blair)"
V:3 bass 
V:1
 [GB]3 [G_B] [G=B]3 [G_B] | [GB]>[Gc] [Gd]>[Ge] [Gd]2 [GB]2 | [FA]3 [=F^G] [^FA]3 [=FG] | %3
w: By~Isaac~N.~McHose * * *|||
 [FA]>[GB] [Ac]>[GB] [FA]4 | [GB]3 [G_B] [G=B]3 [G_B] | [GB]>[Gc] [Gd]>[Ge] [Gd]2 [GB]2 | %6
w: |||
 [FA]3 [=F^G] [^FA]3 [=FG] | [FA]>[Ac] [GB]>[DA] [DG]4 | [Ge]3 [G^d] [Ge]2 [Gc]2 | %9
w: |||
 [Gd]>[G^c] [Gd]>[Ge] [Gd]2 [GB]2 | [Ac]3 [^GB] [Ac]2 [FA]2 | [GB]>[Gc] [Gd]>[Ge] [Gd]4 | %12
w: |||
 [Ge]3 [G^d] [Ge]2 [Gc]2 | [Gd]>[G^c] [Gd]>[Ge] [Gd]2 [GB]2 | [FA]3 [GB] [Ac]2 [FA]2 | %15
w: |||
 [Fd]>[Fc] [GB]>[DA] [DG]4- | [DG]4 z4 |] %17
w: ||
V:2
 D3 ^C D3 C | D>E B,>C B,2 D2 | D3 D D3 D | D>D D>D D4 | D3 ^C D3 C | D>E B,>C B,2 D2 | D3 D D3 D | %7
 D>D D>D B,4 | C3 C C2 E2 | B,>_B, =B,>C B,2[K:treble] D2 | D3 D D2 D2 | D>E B,>C B,4 | %12
 C3 C C2 E2 | B,>_B, =B,>C B,2[K:treble] D2 | D3 D D2 D2 | D>D D>D B,4- | B,4 z4 |] %17
V:3
 G,3 G, G,3 G, | G,>G, G,>G, G,2 G,2 | D,3 D, D,3 D, | D,>D, D,>D, D,4 | G,3 G, G,3 G, | %5
 G,>G, G,>G, G,2 G,2 | D,3 D, D,3 D, | D,>D, D,>D, G,4 | C,3 C, C,2 C,2 | G,>G, G,>G, G,2 G,2 | %10
 D,3 D, D,2 D,2 | G,>G, G,>G, G,4 | C,3 C, C,2 C,2 | G,>G, G,>G, G,2 G,2 | D,3 D, D,2 D,2 | %15
 D,>D, D,>D, G,4- | G,4 z4 |] %17

